X:11
T:Sarah Hobbs
R:reel
O:Irish
S:Silver Apple News, 2004
D:Kieran O'Hare & John Skelton, Double Barrelled
Z:Paul Stewart Cranford (P.S.C.), <http://www.cranfordpub.com>
Q:333
L:1/8
M:C|
K:G
GE|DEGA BG ~G2|AGBG AGEG|DEGA (3(Bcd) ed|BAAG A2:|
||Bd|eA ~A2 (3(Bcd) eg|dG{A}GF G2 (3(Bcd)|eA ~A2 Bdeg|dBGG ~A2 Bd|
eA ~A2 (3(Bcd) eg|dG{A}GF G2 (3(Bcd)|eg ~g2 edef gbaf g2|]
